proprietary/assets/icons/computer-en-internet/laptop-met-huis.svg

<svg height="64" viewBox="0 0 64 64" width="64" xmlns="http://www.w3.org/2000/svg"><path d="m0 0h64v64h-64z" fill="none"/><path d="m25.0172 20.1981 6.4436 9.7618 1.0236-2.8186 3.8641 2.4973 1.5019-2.3223-3.7205-2.4044 2.7635-1.8055z"/><path d="m30.3762 45h-6.3762l2-4h4.3358c.2273-.5315.5621-1.0169.9953-1.415l3.9955-3.585h-24.199c-.0243-.1208.0018-.2873.2409-.3617 1.1795-.3669 2.6765-.7943 2.6765-.7943l.873-19.844h32.164l.5208 11.837c.6614.1062 1.2953.3842 1.8001.8452l2.333 2.0931-.6992-15.8953c-.065-1.6149-1.3814-2.88-2.9976-2.88h-34.0782c-1.6162 0-2.9326 1.2651-2.997 2.8721l-.9741 22.1431-5.5621 8.2724c-.2802.4663-.4277.9995-.4277 1.5435v4.1689c0 1.1045.8955 2 2 2h26.939v-5.0576c-1.132-.2002-2.0697-.9429-2.5628-1.9424z"/><path d="m60.6401 41.7935-13.1905-11.8965c-.2133-.196-.5413-.196-.7546 0l-13.2626 11.8965c-.2294.2112-.4324.5085-.4324.8199v.8254c0 .3076.3943.5612.702.5612h2.298v12h22v-12h2.4429c.3076 0 .5571-.2536.5571-.5612v-.8254c0-.3114-.1306-.6087-.3599-.8199zm-9.6401 9.2065h-8v-6h8z"/></svg>

<?xml version="1.0" encoding="utf-8"?>
<!-- Generator: Adobe Illustrator 17.1.0, SVG Export Plug-In . SVG Version: 6.00 Build 0)  -->
<svg version="1.2" baseProfile="tiny" xmlns="http://www.w3.org/2000/svg" xmlns:xlink="http://www.w3.org/1999/xlink" x="0px"
	 y="0px" width="64px" height="64px" viewBox="0 0 64 64" xml:space="preserve">
<g id="Box">
	<rect fill="none" width="64" height="64"/>
</g>
<g id="Icon">
	<g>
		<polygon points="25.0172,20.1981 31.4608,29.9599 32.4844,27.1413 36.3485,29.6386 37.8504,27.3163 34.1299,24.9119 
			36.8934,23.1064 		"/>
		<path d="M30.3762,45H24l2-4h4.3358c0.2273-0.5315,0.5621-1.0169,0.9953-1.415L35.3266,36h-24.199
			c-0.0243-0.1208,0.0018-0.2873,0.2409-0.3617c1.1795-0.3669,2.6765-0.7943,2.6765-0.7943L14.918,15H47.082l0.5208,11.837
			c0.6614,0.1062,1.2953,0.3842,1.8001,0.8452l2.333,2.0931l-0.6992-15.8953C50.9717,12.2651,49.6553,11,48.0391,11H13.9609
			c-1.6162,0-2.9326,1.2651-2.997,2.8721L9.9898,36.0152l-5.5621,8.2724C4.1475,44.7539,4,45.2871,4,45.8311V50
			c0,1.1045,0.8955,2,2,2h26.939v-5.0576C31.807,46.7422,30.8693,45.9995,30.3762,45z"/>
		<path d="M60.6401,41.7935L47.4496,29.897c-0.2133-0.196-0.5413-0.196-0.7546,0L33.4324,41.7935
			C33.203,42.0047,33,42.302,33,42.6134v0.8254C33,43.7464,33.3943,44,33.702,44H36v12h22V44h2.4429
			C60.7505,44,61,43.7464,61,43.4388v-0.8254C61,42.302,60.8694,42.0047,60.6401,41.7935z M51,51h-8v-6h8V51z"/>
	</g>
</g>
</svg>
